X: 131202
T: Mrs. Crotty's
Z: B.Black
S: Bill Hickman
L: 1/8
M: 4/4
R: hornpipe
K: C
ed|cAAG AdcA|GFEF GABd|c2 Bc defd|(3efe ce d2 ed|
cAAG AdcA|GFEF GABd|c2 Bc defd|1 e2 c2 c2 :|2\
e2 c2 cd||
ef|gGeg fAdf|eGce dABd|cGBc defd|(3efe ce d2 ef|
(3ggg eg (3fff df|(3eee ce (3ddd Bd|c2 Bc defd|\
e2 c2 c2 :|
